svg/u1f929.svg

<svg viewBox="0 0 128 128" xmlns="http://www.w3.org/2000/svg">
  <g id="gold">
    <radialGradient id="face_1_" cx="63.6" cy="512.9" gradientTransform="matrix(1 0 0 1 0 -450)" gradientUnits="userSpaceOnUse" r="56.9597">
      <stop offset="0.5" stop-color="#FDE030"/>
      <stop offset="0.92" stop-color="#F7C02B"/>
      <stop offset="1" stop-color="#F4A223"/>
    </radialGradient>
    <path id="face" d="M63.6,118.8c-27.9,0-58-17.5-58-55.9S35.7,7,63.6,7c15.5,0,29.8,5.1,40.4,14.4 c11.5,10.2,17.6,24.6,17.6,41.5s-6.1,31.2-17.6,41.4C93.4,113.6,79,118.8,63.6,118.8z" fill="url(#face_1_)"/>
    <path d="M111.49,29.67c5.33,8.6,8.11,18.84,8.11,30.23c0,16.9-6.1,31.2-17.6,41.4 c-10.6,9.3-25,14.5-40.4,14.5c-18.06,0-37-7.35-48.18-22.94c10.76,17.66,31,25.94,50.18,25.94c15.4,0,29.8-5.2,40.4-14.5 c11.5-10.2,17.6-24.5,17.6-41.4C121.6,50.16,118.13,38.84,111.49,29.67z" fill="#EB8F00"/>
  </g>
  <g id="facial_expressions">
    <g id="grinning-face-with-star-eyes">
      <g id="eyes">
        <radialGradient id="SVGID_1_" cx="94.5202" cy="89.652" fx="85.857" fy="82.6402" gradientTransform="matrix(1 0 0 -1 0 130)" gradientUnits="userSpaceOnUse" r="23.9109">
          <stop offset="0.2" stop-color="#FF4081"/>
          <stop offset="0.88" stop-color="#CC1775"/>
        </radialGradient>
        <path d="M95.92,17.13l-8.06,10.7c-0.4,0.52-1.02,0.82-1.68,0.79L72.8,28.05 c-1.1-0.05-2.04,0.81-2.09,1.91c-0.02,0.44,0.11,0.87,0.36,1.23l7.69,11c0.37,0.53,0.46,1.2,0.24,1.81l-4.68,12.56 c-0.38,1.04,0.15,2.19,1.18,2.57c0.41,0.15,0.85,0.16,1.27,0.04l12.81-3.92c0.63-0.19,1.31-0.06,1.83,0.35l10.49,8.33 c0.87,0.68,2.12,0.54,2.81-0.33c0.27-0.35,0.42-0.77,0.43-1.21L105.37,49c0.01-0.66,0.35-1.27,0.9-1.63L117.43,40 c0.92-0.61,1.18-1.85,0.57-2.77c-0.24-0.37-0.6-0.65-1.02-0.79l-12.67-4.36c-0.64-0.21-1.13-0.73-1.31-1.38l-3.56-12.91 c-0.3-1.06-1.41-1.68-2.47-1.38C96.55,16.53,96.18,16.78,95.92,17.13z" fill="url(#SVGID_1_)"/>
      </g>
    </g>
    <path d="M99.81,16.89l3,13.92c0.23,1.07,1.02,1.93,2.07,2.24l13.38,4c1,0.36,1.52,1.46,1.16,2.46 c-0.14,0.4-0.41,0.73-0.77,0.96l-12,6.52c-1.01,0.51-1.65,1.55-1.65,2.68l0.12,14.59c-0.03,1.05-0.91,1.88-1.97,1.85 c-0.42-0.01-0.83-0.16-1.15-0.43l-10.48-9.41c-0.81-0.74-1.96-0.97-3-0.61l-13.3,4.53c-1.02,0.29-2.08-0.3-2.38-1.32 c-0.12-0.4-0.1-0.83,0.06-1.22l5.86-13.37c0.44-1.02,0.29-2.19-0.4-3.06l-8.51-10.73c-0.59-0.89-0.35-2.08,0.53-2.68 c0.34-0.23,0.75-0.34,1.17-0.32l13.89,1.58c1.09,0.12,2.15-0.36,2.78-1.25l8.22-11.62c0.65-0.84,1.86-0.99,2.69-0.33 C99.47,16.13,99.7,16.48,99.81,16.89z" fill="#F44336"/>
    <path d="M96.63,30.34l1-9.6c0.07-0.53,0.15-1.45,1-1.28c0.67,0.14,0.74,1.59,0.74,1.59l1.3,8.14 c0.48,3.09-0.16,4-1.32,4.36C98,34,96.35,33.09,96.63,30.34z" fill="#FF847A"/>
    <path d="M105.65,46l9.47-4.69c0.47-0.26,1.31-0.65,0.86-1.38c-0.37-0.57-1.76-0.14-1.76-0.14l-7.71,1.33 c-2.28,0.3-3.92,1.1-4.33,2.45C101.65,45.31,103,47.06,105.65,46z" fill="#C62828"/>
    <path d="M32.5,14.5l8,11.74c0.62,0.9,1.67,1.39,2.76,1.29l13.92-1.37c1.06-0.03,1.95,0.8,1.98,1.86 c0.01,0.41-0.1,0.81-0.33,1.14L50.2,39.79c-0.7,0.86-0.87,2.03-0.44,3.05l5.65,13.45c0.37,0.99-0.13,2.1-1.12,2.47 c-0.4,0.15-0.83,0.16-1.24,0.04l-13.27-4.73c-1.03-0.37-2.18-0.16-3,0.56L26.2,63.88c-0.82,0.66-2.02,0.53-2.69-0.29 c-0.27-0.33-0.42-0.75-0.42-1.17l0.33-14.59c0.03-1.11-0.56-2.13-1.52-2.68L10,38.45c-0.9-0.54-1.2-1.72-0.65-2.62 c0.23-0.39,0.6-0.69,1.03-0.83l13.45-3.82c1.04-0.29,1.84-1.13,2.1-2.18l3.19-13.87c0.29-1.02,1.35-1.61,2.37-1.32 C31.89,13.92,32.25,14.17,32.5,14.5z" fill="#F44336"/>
    <path d="M34.66,28.15l-2.74-9.26c-0.13-0.52-0.41-1.4,0.43-1.56c0.67-0.13,1.3,1.19,1.3,1.19l4.28,7 c1.63,2.68,1.37,3.75,0.44,4.53S35.44,30.8,34.66,28.15z" fill="#FF847A"/>
    <path d="M48.94,39.16l7-7.94c0.34-0.41,1-1.09,0.26-1.59c-0.55-0.4-1.67,0.53-1.67,0.53l-6.63,4.16 c-2,1.14-3.21,2.5-3.07,3.91C45,40.09,46.9,41.19,48.94,39.16z" fill="#C62828"/>
    <path d="M102.07,71.62c-1.4-2.53-4.44-3.64-7.14-2.62c-10.26,2.99-20.9,4.48-31.59,4.43 C52.65,73.48,42.01,71.99,31.75,69c-2.69-1.02-5.73,0.08-7.13,2.6c-1.36,2.51-0.38,5.42,0.77,7.93 c6.42,14.1,20.57,22.54,37.87,22.59h0.16c17.3,0,31.45-8.49,37.88-22.59C102.44,77,103.43,74.13,102.07,71.62z" fill="#422B0D"/>
    <path d="M63.42,100.89" fill="#422B0D"/>
    <path d="M63.49,74.7" fill="#422B0D"/>
    <path d="M63.49,74.7" fill="#422B0D"/>
    <path d="M63.42,100.89" fill="#422B0D"/>
    <path d="M79.35,98.14c-0.37-0.34-0.75-0.65-1.13-1c-4.08-3.59-9.36-5.52-14.8-5.41 C57.82,91.64,52.37,93.5,48,97c-0.38,0.31-0.78,0.61-1.15,1s-0.57,0.67-0.81,1c5.5,2.15,11.36,3.25,17.27,3.22h0.16 c5.66,0,11.27-1.01,16.57-3C79.84,98.84,79.61,98.48,79.35,98.14z" fill="#ED7770"/>
    <path d="M94.93,69c-10.26,2.99-20.9,4.48-31.59,4.43C52.65,73.48,42.01,71.99,31.75,69 c-2.69-1.02-5.73,0.08-7.13,2.6c-0.2,0.38-0.36,0.78-0.46,1.19c0.33,0.17,0.71,0.34,1.16,0.52c12.04,6.03,25.35,9.09,38.81,8.93 c12.91,0.15,25.67-2.66,37.33-8.2c0.47-0.2,0.86-0.39,1.21-0.57c-0.08-0.65-0.29-1.29-0.6-1.87C100.67,69.08,97.63,67.97,94.93,69z " fill="#FFFFFF"/>
    <path d="M102.11,71.63c-1.42-2.53-4.47-3.65-7.19-2.63c-10.26,2.99-20.9,4.48-31.58,4.43 C52.65,73.48,42.01,71.99,31.75,69c-2.69-1.02-5.73,0.08-7.13,2.6c-1.36,2.51-0.38,5.42,0.77,7.93c0.51,1.13,1.08,2.24,1.71,3.31 c0,0-2.1-7.78-0.28-10.04c0.62-0.96,1.66-1.56,2.8-1.62c0.47,0,0.93,0.08,1.38,0.22c10.44,3.07,21.27,4.62,32.16,4.6h0.35 c10.89,0.02,21.72-1.53,32.16-4.6c0.45-0.14,0.91-0.22,1.38-0.22c1.14,0.06,2.19,0.66,2.81,1.62c1.85,2.26-0.28,10.07-0.28,10.07 c0.62-1.07,1.24-2.17,1.76-3.31C102.48,77.05,103.47,74.15,102.11,71.63z" fill="#EB8F00"/>
  </g>
</svg>

<svg viewBox="0 0 128 128" xmlns="http://www.w3.org/2000/svg">
  <defs>
    <radialGradient id="face_1_" cx="63.6" cy="62.9" gradientUnits="userSpaceOnUse" r="56.9597">
      <stop offset="0.5" stop-color="#FDE030"/>
      <stop offset="0.92" stop-color="#F7C02B"/>
      <stop offset="1" stop-color="#F4A223"/>
    </radialGradient>
    <radialGradient id="SVGID_1_" cx="94.5202" cy="-40.348" fx="85.857" fy="-47.3598" gradientTransform="matrix(1 0 0 -1 0 0)" gradientUnits="userSpaceOnUse" r="23.9109">
      <stop offset="0.2" stop-color="#FF4081"/>
      <stop offset="0.88" stop-color="#CC1775"/>
    </radialGradient>
  </defs>
  <path id="face" d="M63.6,118.8 C35.7,118.8 5.6,101.3 5.6,62.9 C5.6,24.5 35.7,7 63.6,7 C79.1,7 93.4,12.1 104,21.4 C115.5,31.6 121.6,46 121.6,62.9 C121.6,79.8 115.5,94.1 104,104.3 C93.4,113.6 79,118.8 63.6,118.8 Z" fill="url(#face_1_)"/>
  <path d="M111.49,29.67 C116.82,38.27 119.6,48.51 119.6,59.9 C119.6,76.8 113.5,91.1 102,101.3 C91.4,110.6 77,115.8 61.6,115.8 C43.54,115.8 24.6,108.45 13.42,92.86 C24.18,110.52 44.42,118.8 63.6,118.8 C79,118.8 93.4,113.6 104,104.3 C115.5,94.1 121.6,79.8 121.6,62.9 C121.6,50.16 118.13,38.84 111.49,29.67 Z" fill="#EB8F00"/>
  <path d="M95.92,17.13 L87.86,27.83 C87.46,28.35 86.84,28.65 86.18,28.62 L72.8,28.05 C71.7,28 70.76,28.86 70.71,29.96 C70.69,30.4 70.82,30.83 71.07,31.19 L78.76,42.19 C79.13,42.72 79.22,43.39 79,44 L74.32,56.56 C73.94,57.6 74.47,58.75 75.5,59.13 C75.91,59.28 76.35,59.29 76.77,59.17 L89.58,55.25 C90.21,55.06 90.89,55.19 91.41,55.6 L101.9,63.93 C102.77,64.61 104.02,64.47 104.71,63.6 C104.98,63.25 105.13,62.83 105.14,62.39 L105.37,49 C105.38,48.34 105.72,47.73 106.27,47.37 L117.43,40 C118.35,39.39 118.61,38.15 118,37.23 C117.76,36.86 117.4,36.58 116.98,36.44 L104.31,32.08 C103.67,31.87 103.18,31.35 103,30.7 L99.44,17.79 C99.14,16.73 98.03,16.11 96.97,16.41 C96.55,16.53 96.18,16.78 95.92,17.13 Z" fill="url(#SVGID_1_)"/>
  <path d="M99.81,16.89 L102.81,30.81 C103.04,31.88 103.83,32.74 104.88,33.05 L118.26,37.05 C119.26,37.41 119.78,38.51 119.42,39.51 C119.28,39.91 119.01,40.24 118.65,40.47 L106.65,46.99 C105.64,47.5 105,48.54 105,49.67 L105.12,64.26 C105.09,65.31 104.21,66.14 103.15,66.11 C102.73,66.1 102.32,65.95 102,65.68 L91.52,56.27 C90.71,55.53 89.56,55.3 88.52,55.66 L75.22,60.19 C74.2,60.48 73.14,59.89 72.84,58.87 C72.72,58.47 72.74,58.04 72.9,57.65 L78.76,44.28 C79.2,43.26 79.05,42.09 78.36,41.22 L69.85,30.49 C69.26,29.6 69.5,28.41 70.38,27.81 C70.72,27.58 71.13,27.47 71.55,27.49 L85.44,29.07 C86.53,29.19 87.59,28.71 88.22,27.82 L96.44,16.2 C97.09,15.36 98.3,15.21 99.13,15.87 C99.47,16.13 99.7,16.48 99.81,16.89 Z" fill="#F44336"/>
  <path d="M96.63,30.34 L97.63,20.74 C97.7,20.21 97.78,19.29 98.63,19.46 C99.3,19.6 99.37,21.05 99.37,21.05 L100.67,29.19 C101.15,32.28 100.51,33.19 99.35,33.55 C98,34 96.35,33.09 96.63,30.34 Z" fill="#FF847A"/>
  <path d="M105.65,46 L115.12,41.31 C115.59,41.05 116.43,40.66 115.98,39.93 C115.61,39.36 114.22,39.79 114.22,39.79 L106.51,41.12 C104.23,41.42 102.59,42.22 102.18,43.57 C101.65,45.31 103,47.06 105.65,46 Z" fill="#C62828"/>
  <path d="M32.5,14.5 L40.5,26.24 C41.12,27.14 42.17,27.63 43.26,27.53 L57.18,26.16 C58.24,26.13 59.13,26.96 59.16,28.02 C59.17,28.43 59.06,28.83 58.83,29.16 L50.2,39.79 C49.5,40.65 49.33,41.82 49.76,42.84 L55.41,56.29 C55.78,57.28 55.28,58.39 54.29,58.76 C53.89,58.91 53.46,58.92 53.05,58.8 L39.78,54.07 C38.75,53.7 37.6,53.91 36.78,54.63 L26.2,63.88 C25.38,64.54 24.18,64.41 23.51,63.59 C23.24,63.26 23.09,62.84 23.09,62.42 L23.42,47.83 C23.45,46.72 22.86,45.7 21.9,45.15 L10,38.45 C9.1,37.91 8.8,36.73 9.35,35.83 C9.58,35.44 9.95,35.14 10.38,35 L23.83,31.18 C24.87,30.89 25.67,30.05 25.93,29 L29.12,15.13 C29.41,14.11 30.47,13.52 31.49,13.81 C31.89,13.92 32.25,14.17 32.5,14.5 Z" fill="#F44336"/>
  <path d="M34.66,28.15 L31.92,18.89 C31.79,18.37 31.51,17.49 32.35,17.33 C33.02,17.2 33.65,18.52 33.65,18.52 L37.93,25.52 C39.56,28.2 39.3,29.27 38.37,30.05 C37.44,30.83 35.44,30.8 34.66,28.15 Z" fill="#FF847A"/>
  <path d="M48.94,39.16 L55.94,31.22 C56.28,30.81 56.94,30.13 56.2,29.63 C55.65,29.23 54.53,30.16 54.53,30.16 L47.9,34.32 C45.9,35.46 44.69,36.82 44.83,38.23 C45,40.09 46.9,41.19 48.94,39.16 Z" fill="#C62828"/>
  <path d="M102.07,71.62 C100.67,69.09 97.63,67.98 94.93,69 C84.67,71.99 74.03,73.48 63.34,73.43 C52.65,73.48 42.01,71.99 31.75,69 C29.06,67.98 26.02,69.08 24.62,71.6 C23.26,74.11 24.24,77.02 25.39,79.53 C31.81,93.63 45.96,102.07 63.26,102.12 L63.42,102.12 C80.72,102.12 94.87,93.63 101.3,79.53 C102.44,77 103.43,74.13 102.07,71.62 Z" fill="#422B0D"/>
  <path d="M79.35,98.14 C78.98,97.8 78.6,97.49 78.22,97.14 C74.14,93.55 68.86,91.62 63.42,91.73 C57.82,91.64 52.37,93.5 48,97 C47.62,97.31 47.22,97.61 46.85,98 C46.48,98.39 46.28,98.67 46.04,99 C51.54,101.15 57.4,102.25 63.31,102.22 L63.47,102.22 C69.13,102.22 74.74,101.21 80.04,99.22 C79.84,98.84 79.61,98.48 79.35,98.14 Z" fill="#ED7770"/>
  <path d="M94.93,69 C84.67,71.99 74.03,73.48 63.34,73.43 C52.65,73.48 42.01,71.99 31.75,69 C29.06,67.98 26.02,69.08 24.62,71.6 C24.42,71.98 24.26,72.38 24.16,72.79 C24.49,72.96 24.87,73.13 25.32,73.31 C37.36,79.34 50.67,82.4 64.13,82.24 C77.04,82.39 89.8,79.58 101.46,74.04 C101.93,73.84 102.32,73.65 102.67,73.47 C102.59,72.82 102.38,72.18 102.07,71.6 C100.67,69.08 97.63,67.97 94.93,69 Z" fill="#FFFFFF"/>
  <path d="M102.11,71.63 C100.69,69.1 97.64,67.98 94.92,69 C84.66,71.99 74.02,73.48 63.34,73.43 C52.65,73.48 42.01,71.99 31.75,69 C29.06,67.98 26.02,69.08 24.62,71.6 C23.26,74.11 24.24,77.02 25.39,79.53 C25.9,80.66 26.47,81.77 27.1,82.84 C27.1,82.84 25,75.06 26.82,72.8 C27.44,71.84 28.48,71.24 29.62,71.18 C30.09,71.18 30.55,71.26 31,71.4 C41.44,74.47 52.27,76.02 63.16,76 L63.51,76 C74.4,76.02 85.23,74.47 95.67,71.4 C96.12,71.26 96.58,71.18 97.05,71.18 C98.19,71.24 99.24,71.84 99.86,72.8 C101.71,75.06 99.58,82.87 99.58,82.87 C100.2,81.8 100.82,80.7 101.34,79.56 C102.48,77.05 103.47,74.15 102.11,71.63 Z" fill="#EB8F00"/>
</svg>
